dist/images/nav-listen.svg

<svg width="24" height="24" viewBox="0 0 24 24" fill="none" xmlns="http://www.w3.org/2000/svg">
<path d="M6 18C7.10457 18 8 17.1046 8 16C8 14.8954 7.10457 14 6 14C4.89543 14 4 14.8954 4 16C4 17.1046 4.89543 18 6 18Z" fill="#D5DFF2"/>
<path d="M20.7722 4.98567L11.1007 2.03228C10.7389 1.92179 10.3419 2.10271 10.2137 2.45623C10.0768 2.83371 10.2863 3.2438 10.6682 3.36043L15.9489 4.97302H2.10938C0.944391 4.97302 0 5.91029 0 7.0665V9.43911H5.67188V8.66796C5.67188 8.29221 5.96283 7.96888 6.34102 7.9512C6.7448 7.93232 7.07812 8.25164 7.07812 8.64824V9.43911H24V7.07757C24 5.9202 23.0537 4.98241 21.8876 4.98409L20.7722 4.98567ZM0 10.8348V19.9065C0 21.0627 0.944391 22 2.10938 22H21.8906C23.0556 22 24 21.0627 24 19.9065V10.8348H0ZM6.375 19.0226C4.53989 19.0226 3.04688 17.5408 3.04688 15.7196C3.04688 13.8983 4.53989 12.4165 6.375 12.4165C8.21011 12.4165 9.70312 13.8983 9.70312 15.7196C9.70312 17.5408 8.21011 19.0226 6.375 19.0226ZM20.25 18.2783H12.75C12.3617 18.2783 12.0469 17.9658 12.0469 17.5804C12.0469 17.195 12.3617 16.8826 12.75 16.8826H20.25C20.6383 16.8826 20.9531 17.195 20.9531 17.5804C20.9531 17.9658 20.6383 18.2783 20.25 18.2783ZM20.25 14.5565H12.75C12.3617 14.5565 12.0469 14.2441 12.0469 13.8587C12.0469 13.4733 12.3617 13.1609 12.75 13.1609H20.25C20.6383 13.1609 20.9531 13.4733 20.9531 13.8587C20.9531 14.2441 20.6383 14.5565 20.25 14.5565Z" fill="#D5DFF2"/>
</svg>

<svg width="24" height="24" fill="none" xmlns="http://www.w3.org/2000/svg"><path d="M6 18a2 2 0 100-4 2 2 0 000 4z" fill="#D5DFF2"/><path d="M20.772 4.986l-9.671-2.954c-.362-.11-.76.07-.887.424a.697.697 0 00.454.904l5.28 1.613H2.11C.944 4.973 0 5.91 0 7.066V9.44h5.672v-.771c0-.376.29-.7.669-.717a.7.7 0 01.737.697v.791H24V7.078a2.102 2.102 0 00-2.112-2.094l-1.116.002zM0 10.835v9.072C0 21.063.944 22 2.11 22h19.78c1.166 0 2.11-.937 2.11-2.093v-9.072H0zm6.375 8.188c-1.835 0-3.328-1.482-3.328-3.303 0-1.822 1.493-3.304 3.328-3.304 1.835 0 3.328 1.482 3.328 3.304 0 1.82-1.493 3.303-3.328 3.303zm13.875-.745h-7.5a.7.7 0 01-.703-.698.7.7 0 01.703-.697h7.5a.7.7 0 01.703.697.7.7 0 01-.703.698zm0-3.721h-7.5a.7.7 0 01-.703-.698.7.7 0 01.703-.698h7.5a.7.7 0 01.703.698.7.7 0 01-.703.697z" fill="#D5DFF2"/></svg>
